icons/folder-src-tauri.svg

<svg xmlns="http://www.w3.org/2000/svg" viewBox="0 0 32 32"><path fill="#455a64" d="m13.843 7.536-1.288-1.072A1.996 1.996 0 0 0 11.275 6H3.999a2 2 0 0 0-2 2v16a2 2 0 0 0 2 2h24a2 2 0 0 0 2-2V10a2 2 0 0 0-2-2H15.123a2.01 2.01 0 0 1-1.28-.464Z"/><path fill="#ffca28" d="M27.157 16.551c0 1.319-1.43 2.143-2.573 1.483a1.67 1.67 0 0 1-.355-.271c-.934-.933-.506-2.525.768-2.867a1.716 1.716 0 0 1 2.16 1.655Z"/><path fill="#26c6da" d="M22.556 19.744c-.947 0-1.715.767-1.715 1.712 0 .946.768 1.713 1.715 1.713.949 0 1.717-.767 1.717-1.713 0-.945-.768-1.712-1.717-1.712Z"/><path fill="#ffca28" d="M28.996 22.041a6.555 6.555 0 0 1-2.261.918 4.58 4.58 0 0 0 .226-2.07 4.593 4.593 0 0 0 .521-8.455 4.603 4.603 0 0 0-5.775 1.44 7.595 7.595 0 0 0-2.51.731 6.55 6.55 0 0 1 12.798 2.191 6.542 6.542 0 0 1-2.999 5.245Zm-9.722-6.245 1.607.195a4.58 4.58 0 0 1 .203-.911 6.563 6.563 0 0 0-1.81.716Z" clip-rule="evenodd"/><path fill="#26c6da" d="M18.995 15.967a6.552 6.552 0 0 1 2.276-.926 4.57 4.57 0 0 0-.257 2.079 4.596 4.596 0 0 0-2.863 3.005c-.893 2.969 1.352 5.951 4.454 5.916a4.603 4.603 0 0 0 3.687-1.914 7.664 7.664 0 0 0 2.509-.724 6.553 6.553 0 0 1-10.212 3.266c-3.617-2.742-3.41-8.24.406-10.702Zm9.72 6.245-.03.016.03-.016Z" clip-rule="evenodd"/></svg>

<svg xmlns="http://www.w3.org/2000/svg" viewBox="0 0 32 32"><path fill="#455a64" d="M 13.843 7.536 L 12.555 6.464 C 12.196 6.164 11.743 6 11.275 6 L 3.999 6 C 2.895 6 1.999 6.895 1.999 8 L 1.999 24 C 1.999 25.104 2.895 26 3.999 26 L 27.999 26 C 29.104 26 29.999 25.104 29.999 24 L 29.999 10 C 29.999 8.895 29.104 8 27.999 8 L 15.123 8 C 14.656 7.999 14.203 7.835 13.843 7.536 Z"/><path fill="#ffca28" d="M 27.157 16.551 C 27.157 17.87 25.727 18.694 24.584 18.034 C 24.454 17.96 24.335 17.869 24.229 17.763 C 23.295 16.83 23.723 15.238 24.997 14.896 C 26.087 14.605 27.157 15.425 27.157 16.551 Z" style=""/><path fill="#26c6da" d="M 22.556 19.744 C 21.609 19.744 20.841 20.511 20.841 21.456 C 20.841 22.402 21.609 23.169 22.556 23.169 C 23.505 23.169 24.273 22.402 24.273 21.456 C 24.273 20.511 23.505 19.744 22.556 19.744 Z" style=""/><path fill="#ffca28" d="M 28.996 22.041 C 28.306 22.486 27.54 22.797 26.735 22.959 C 26.968 22.295 27.046 21.586 26.961 20.889 C 28.346 20.405 29.415 19.292 29.843 17.893 C 30.499 15.741 29.501 13.431 27.482 12.434 C 25.464 11.438 23.021 12.046 21.707 13.874 C 20.834 13.971 19.985 14.218 19.197 14.605 C 20.169 11.47 23.319 9.541 26.557 10.094 C 29.796 10.649 32.123 13.516 31.995 16.796 C 31.912 18.928 30.792 20.885 28.996 22.041 Z M 19.274 15.796 L 20.881 15.991 C 20.918 15.681 20.985 15.376 21.084 15.08 C 20.448 15.227 19.839 15.469 19.274 15.796 Z" clip-rule="evenodd" style=""/><path fill="#26c6da" d="M 18.995 15.967 C 19.688 15.518 20.461 15.203 21.271 15.041 C 21.026 15.705 20.937 16.417 21.014 17.12 C 19.636 17.61 18.572 18.725 18.151 20.125 C 17.258 23.094 19.503 26.076 22.605 26.041 C 24.07 26.025 25.438 25.314 26.292 24.127 C 27.163 24.031 28.013 23.786 28.801 23.403 C 28.167 25.439 26.579 27.039 24.547 27.688 C 22.512 28.339 20.29 27.959 18.589 26.669 C 14.972 23.927 15.179 18.429 18.995 15.967 Z M 28.715 22.212 L 28.685 22.228 L 28.715 22.212 Z" clip-rule="evenodd" style=""/></svg>
